ICONS/component-icons/svg/colorgradient.svg

<?xml version="1.0" encoding="UTF-8"?><svg id="widgets" xmlns="http://www.w3.org/2000/svg" width="24" height="24" viewBox="0 0 24 24"><path id="colorgradient" d="M21,24V11h2v11s-2,2-2,2Zm2-21V0s-2,0-2,0V3s2,0,2,0Zm-3,2v4s4,0,4,0V5s-4,0-4,0ZM9,2.77C6.27,5.55,2,10.8,2,15c0,3.86,3.14,7,7,7s7-3.14,7-7c0-4.2-4.27-9.45-7-12.23M9,0s9,8,9,15c0,4.97-4.03,9-9,9S0,19.97,0,15C0,8,9,0,9,0h0Zm4,14h-2c0,1.65-1.35,3-3,3v2c2.76,0,5-2.24,5-5Z"/></svg>

<?xml version="1.0" encoding="utf-8"?>
<!-- Generator: Adobe Illustrator 24.3.0, SVG Export Plug-In . SVG Version: 6.00 Build 0)  -->
<svg version="1.1" id="Layer_1" xmlns="http://www.w3.org/2000/svg" xmlns:xlink="http://www.w3.org/1999/xlink" x="0px" y="0px"
	 width="24px" height="24px" viewBox="0 0 24 24" enable-background="new 0 0 24 24" xml:space="preserve">
<path d="M21,24V11h2v11L21,24z M23,3V0l-2,0v3H23z M20,5v4h4V5H20z M9,2.8c-2.7,2.8-7,8-7,12.2c0,3.9,3.1,7,7,7s7-3.1,7-7
	C16,10.8,11.7,5.6,9,2.8 M9,0c0,0,9,8,9,15c0,5-4,9-9,9s-9-4-9-9C0,8,9,0,9,0L9,0z M13,14h-2c0,1.7-1.3,3-3,3v2
	C10.8,19,13,16.8,13,14z"/>
</svg>
